assets/illustrations/default/stilingue-3.svg

<svg xmlns="http://www.w3.org/2000/svg" width="1080" height="1081" fill="none"><g clip-path="url(#a)"><path fill="url(#b)" d="M409.037 668.389c-52.996-69.147-42.65-168.073 24.731-224.601 68.389-57.286 169.837-48.958 228.132 18.17l232.426 238.733v.253c.757.757 1.513 1.767 2.27 2.524 18.422 21.955 15.394 54.508-6.309 72.931-16.908 14.132-40.376 15.647-58.546 5.552 0 0-46.184 50.221-121.892 26.247-36.845-11.609-83.531-42.145-83.531-42.145s-132.236 10.599-217.281-97.664"/><path stroke="#0C4EC0" stroke-linecap="round" stroke-miterlimit="10" stroke-width="22.712" d="M893.317 713.811c14.889 17.665 12.618 43.91-5.048 58.799-7.57 6.31-16.907 9.591-25.992 9.844 0 0-73.69 1.767-185.991-110.534"/><path stroke="#0C4EC0" stroke-linecap="round" stroke-miterlimit="10" stroke-width="22.712" d="M835.272 777.911s-36.593 53.247-100.188 38.862-125.423-55.517-184.475-113.308"/><path stroke="#0C4EC0" stroke-linecap="round" stroke-miterlimit="10" stroke-width="22.712" d="M434.523 445.305s-130.471 98.924-24.48 240.751c76.97 102.963 227.379 87.821 227.379 87.821"/><path fill="#0C4EC0" d="m174.341 766.56 1.513 192.299c0 14.385 14.89 24.226 28.265 18.422 20.946-9.085 48.706-26.247 66.876-58.297l111.544 122.396c2.776 3.03 7.568 3.28 10.597.5l23.218-21.19c3.028-2.78 3.281-7.57.505-10.6l-36.341-41.39 55.016 30.788c3.534 2.022 7.824.762 10.095-2.523l16.906-25.236c2.524-3.786 1.263-8.833-2.775-10.851l-55.771-29.022 48.2 4.291c4.038.252 7.572-2.525 8.076-6.563l3.532-28.517 119.871 76.465c3.281 2.272 7.825 1.263 10.349-2.018l12.364-17.16c2.523-3.533 1.515-8.58-2.019-10.851l-32.301-20.694 48.454 6.56c4.29.505 8.326-2.524 8.578-6.814l1.516-19.684c.252-4.037-2.524-7.571-6.309-8.076l-43.407-6.812 36.593-9.843c4.037-1.009 6.308-5.046 5.298-9.084l-4.036-17.919c-1.01-3.785-4.544-6.308-8.582-5.804l-49.713 8.077-296.778-55.52z"/><path fill="url(#c)" d="m681.587 645.425 12.87-266.241h-.252c4.543-152.426-111.291-283.402-264.979-295.767-158.735-12.87-297.787 105.487-310.658 264.222-.504 6.057-.755 12.365-1.008 18.422h-.505l.757 13.123q0 6.814.756 13.626l12.367 245.296h.757c-1.515 143.341 108.011 265.483 252.866 277.092 151.416 12.365 284.158-100.691 296.524-252.108.252-6.056.505-11.861.505-17.665"/><path fill="#fff" d="M481.717 249.472s8.579 3.787 26.749-18.673c18.17-22.208 35.836-40.127 64.101-38.865 28.264 1.262 79.494 71.419 71.923 145.613s-51.735 149.398-201.132 141.322c-149.398-8.075-264.979-91.355-252.613-196.842 12.618-105.486 103.215-149.651 159.239-144.099s97.16 39.116 113.311 88.831c0-.252 6.813 21.703 18.422 22.713"/><path fill="#C5D9FB" d="M478.439 355.97s-.507-53.753 19.43-74.195c19.936-20.441 54.005-44.918 105.235-41.385 0 0 15.899 1.512 16.152 18.673 0 0 .756 8.077-4.291 14.639 0 0 25.237 8.579 23.723 28.011s-15.648 20.442-25.995 21.199l-6.561 47.949s-6.057 63.593-62.839 61.069c-56.781-2.523-63.088-40.124-64.854-75.96M297.997 184.366s-5.047-18.927 11.357-25.488c16.403-6.561 56.023 2.522 90.344 33.815 34.069 31.04 41.891 63.09 41.891 63.09s13.629 100.189-54.509 146.118c0 0-24.226 10.347-44.163 8.328s-78.738-19.684-77.224-67.127c1.262-47.444 12.618-94.133 12.618-94.133s-28.767-9.337-14.888-45.425c-.252-.252 10.095-22.207 34.574-19.178"/><path fill="#1F1F1F" d="M406.008 363.79s-1.768 7.826 7.822 18.425 18.675 31.292 20.189 41.891.001 39.619 10.348 40.629 40.88-41.892 44.666-72.68-14.384-52.238-34.825-54.257c-20.189-2.019-42.901 3.28-48.2 25.992"/><path fill="#0C4EC0" d="M432.253 379.942c5.296 0 9.591-4.293 9.591-9.589s-4.295-9.589-9.591-9.589a9.59 9.59 0 0 0-9.589 9.589 9.59 9.59 0 0 0 9.589 9.589"/><path fill="#02041A" d="M536.732 380.196c16.725 0 30.283-13.559 30.283-30.284s-13.558-30.283-30.283-30.283-30.284 13.558-30.284 30.283 13.559 30.284 30.284 30.284"/><path fill="#F9FAFA" d="M525.374 345.627c5.715 0 10.346-4.634 10.346-10.349s-4.631-10.345-10.346-10.345-10.346 4.631-10.346 10.345 4.632 10.349 10.346 10.349"/><path fill="#02041A" d="M358.312 331.994c16.725 0 30.283-13.558 30.283-30.283s-13.558-30.283-30.283-30.283-30.284 13.558-30.284 30.283 13.559 30.283 30.284 30.283"/><path fill="#F9FAFA" d="M346.956 297.421c5.714 0 10.348-4.632 10.348-10.346s-4.634-10.348-10.348-10.348-10.346 4.633-10.346 10.348c0 5.714 4.631 10.346 10.346 10.346"/><path fill="#0C4EC0" fill-rule="evenodd" d="M533.273 608.582c6.271-.1 11.435 4.903 11.535 11.174.35 22.086-17.477 40.812-39.871 40.812-21.779 0-40.632-17.318-40.632-39.873 0-6.271 5.085-11.356 11.356-11.356 6.272 0 11.357 5.085 11.357 11.356 0 9.243 7.9 17.16 17.919 17.16 9.403 0 17.315-8.027 17.161-17.738-.099-6.272 4.904-11.436 11.175-11.535" clip-rule="evenodd"/><path stroke="#0C4EC0" stroke-linecap="round" stroke-miterlimit="10" stroke-width="22.712" d="M439.068 628.268c.253 15.898-12.617 29.272-28.516 29.272-15.899.253-29.273-12.617-29.273-28.516"/><path fill="#0C4EC0" fill-rule="evenodd" d="M572.568 605.298c6.272 0 11.356 5.084 11.356 11.356 0 9.404 8.026 17.316 17.736 17.162 6.271-.1 11.436 4.903 11.535 11.174s-4.903 11.436-11.174 11.535c-22.087.351-40.81-17.478-40.81-39.871 0-6.272 5.085-11.356 11.357-11.356M579.705 679.495c6.272-.1 11.436 4.903 11.535 11.174.351 22.058-17.43 40.759-39.78 40.809-22.049.301-40.72-17.509-40.72-39.872 0-6.272 5.085-11.356 11.356-11.356 6.272 0 11.357 5.084 11.357 11.356 0 9.404 8.026 17.316 17.736 17.162l.09-.002h.09c9.405 0 17.316-8.026 17.162-17.736-.1-6.271 4.903-11.436 11.174-11.535" clip-rule="evenodd"/><path stroke="#0C4EC0" stroke-linecap="round" stroke-miterlimit="10" stroke-width="22.712" d="M536.481 766.557c.252 15.898-12.62 29.273-28.519 29.273s-29.273-12.618-29.273-28.517M476.671 698.42c.252 15.899-12.618 29.273-28.517 29.273s-29.275-12.618-29.275-28.516"/><path stroke="#072F73" stroke-miterlimit="10" stroke-width="20.189" d="M214.969 345.625s22.966 55.518 100.188 88.578"/><path fill="#072F73" d="M315.157 450.604c9.06 0 16.404-7.344 16.404-16.404s-7.344-16.403-16.404-16.403-16.403 7.344-16.403 16.403c0 9.06 7.344 16.404 16.403 16.404"/><mask id="d" width="653" height="382" x="123" y="-94" maskUnits="userSpaceOnUse" style="mask-type:luminance"><path fill="#fff" d="M654.076 223.983s19.683 33.312 28.011 63.596l93.878-15.901-150.66-337.405-385.353-27.76L123.612 52.63l44.163 111.293s10.601-1.514 24.985 0c12.366 1.262 23.721 9.589 23.721 9.589l239.491-1.516z"/></mask><g mask="url(#d)"><path stroke="#072F73" stroke-miterlimit="10" stroke-width="20.189" d="M670.985 301.71c0-4.037.757-29.02.757-33.058-4.29-125.928-111.038-219.05-239.238-227.379-111.039-7.066-202.143 48.706-239.997 147.632"/></g><path fill="#0C4EC0" d="M247.082 299.677c14.271-65.79-7.728-126.408-49.136-135.39S111.401 201.358 97.13 267.149s7.726 126.404 49.134 135.386c41.408 8.983 86.546-37.068 100.818-102.858"/><path fill="#0C4EC0" d="M166.582 231.882c36.036-8.72 61.768-30.177 57.474-47.924s-36.99-25.064-73.025-16.344-61.767 30.174-57.473 47.921 36.988 25.067 73.024 16.347M178.347 395.799c11.261-14.373-3.268-44.56-32.452-67.427-29.185-22.867-61.972-29.754-73.233-15.381s3.266 44.562 32.45 67.43c29.185 22.867 61.973 29.751 73.235 15.378"/><path fill="#1968F0" d="M189.757 287.016c11.849-54.621-6.373-104.935-40.698-112.381s-71.757 30.796-83.605 85.417c-11.85 54.62 6.373 104.934 40.698 112.38s71.757-30.795 83.605-85.416"/><path fill="#072F73" d="M338.375 862.203h512.796c11.356 0 19.938 10.348 17.919 21.705l-3.534 17.916c-1.767 8.581-9.084 14.637-17.917 14.637h-514.06c-9.589 0-16.656-8.58-14.89-17.917l4.545-23.974c1.766-7.319 8.075-12.367 15.141-12.367"/><path fill="url(#e)" d="M1057.35 595.712H649.029c-15.646 0-29.273 11.104-32.301 26.498L564.74 890.723c-2.776 14.132 8.077 27.001 22.21 27.001h416.65c10.85 0 20.19-7.823 22.2-18.422l53.76-276.587c2.77-14.132-7.83-27.003-22.21-27.003"/><path fill="#C5D9FB" d="M85.763 713.568c-52.996-69.147-42.65-168.073 24.731-224.602 68.389-57.286 169.84-48.957 228.135 18.171l232.423 238.732v.252c.758.757 1.516 1.766 2.273 2.523 18.422 21.956 15.394 54.511-6.309 72.934-16.909 14.132-40.379 15.646-58.549 5.552 0 0-46.181 50.218-121.889 26.244-36.845-11.609-83.531-42.142-83.531-42.142S170.808 821.83 85.763 713.568"/><path fill="#0C4EC0" fill-rule="evenodd" d="M360.789 709.325c-4.435-4.435-11.626-4.435-16.06 0-4.435 4.435-4.435 11.625 0 16.06 57.06 57.061 104.765 85.59 138.75 99.824a248 248 0 0 0 8.408 3.345 101 101 0 0 1-12.475 9.944c-15.231 10.258-37.111 18.71-65.093 12.381-60.702-13.73-120.721-53.281-179.037-110.351-4.483-4.387-11.673-4.309-16.06.173s-4.309 11.673.174 16.06c59.788 58.511 123.424 101.232 189.912 116.271 35.613 8.055 63.827-2.924 82.791-15.695 9.431-6.352 16.645-13.178 21.515-18.426a114 114 0 0 0 2.564-2.855c2.632.62 5.052 1.12 7.254 1.524 4.729.868 8.441 1.288 11.065 1.489 1.311.1 2.35.146 3.107.165q.568.014.924.013h.112l.189-.002.11-.001.044-.001.02-.001c.009 0 .018 0-.254-11.353l.272 11.353.022-.001h.021c11.543-.321 23.351-4.474 32.948-12.471l.024-.02.025-.021c22.448-18.92 25.353-52.328 6.411-74.802-4.042-4.795-11.206-5.406-16.002-1.364s-5.406 11.206-1.364 16.002c10.829 12.849 9.201 31.915-3.658 42.777-5.515 4.586-12.332 6.988-18.92 7.192q-.084 0-.344-.005a39 39 0 0 1-1.954-.107c-1.845-.141-4.767-.46-8.701-1.182-3.003-.55-6.6-1.337-10.763-2.459a11.3 11.3 0 0 0-3.449-.972c-6.029-1.77-13.074-4.203-21.063-7.549-30.935-12.957-76.226-39.695-131.465-94.935" clip-rule="evenodd"/></g><defs><linearGradient id="b" x1="375.417" x2="908.639" y1="609.942" y2="609.942" gradientUnits="userSpaceOnUse"><stop stop-color="#1968F0"/><stop offset=".312" stop-color="#6197F5"/><stop offset=".724" stop-color="#C5D9FB"/></linearGradient><linearGradient id="c" x1="-152.28" x2="611.417" y1="604.061" y2="460.506" gradientUnits="userSpaceOnUse"><stop stop-color="#1968F0"/><stop offset=".079" stop-color="#2E76F1"/><stop offset=".297" stop-color="#6499F5"/><stop offset=".501" stop-color="#8EB5F7"/><stop offset=".685" stop-color="#ACC9F9"/><stop offset=".841" stop-color="#BED5FB"/><stop offset=".952" stop-color="#C5D9FB"/></linearGradient><linearGradient id="e" x1="742.737" x2="945.3" y1="556.032" y2="1067.47" gradientUnits="userSpaceOnUse"><stop stop-color="#0096FA"/><stop offset=".279" stop-color="#048FF9"/><stop offset=".679" stop-color="#0E7CF4"/><stop offset="1" stop-color="#1968F0"/></linearGradient><clipPath id="a"><path fill="#fff" d="M0 .514h1080v1080H0z"/></clipPath></defs></svg>

<svg width="1080" height="1081" viewBox="0 0 1080 1081" fill="none" xmlns="http://www.w3.org/2000/svg">
<g clip-path="url(#clip0_18735_5835)">
<path d="M409.037 668.389C356.041 599.242 366.387 500.316 433.768 443.788C502.157 386.502 603.605 394.83 661.9 461.958L894.326 700.691V700.944C895.083 701.701 895.839 702.711 896.596 703.468C915.018 725.423 911.99 757.976 890.287 776.399C873.379 790.531 849.911 792.046 831.741 781.951C831.741 781.951 785.557 832.172 709.849 808.198C673.004 796.589 626.318 766.053 626.318 766.053C626.318 766.053 494.082 776.652 409.037 668.389Z" fill="url(#paint0_linear_18735_5835)"/>
<path d="M893.317 713.811C908.206 731.476 905.935 757.721 888.269 772.61C880.699 778.92 871.362 782.201 862.277 782.454C862.277 782.454 788.587 784.221 676.286 671.92" stroke="#0C4EC0" stroke-width="22.7125" stroke-miterlimit="10" stroke-linecap="round"/>
<path d="M835.272 777.911C835.272 777.911 798.679 831.158 735.084 816.773C671.489 802.389 609.661 761.256 550.609 703.465" stroke="#0C4EC0" stroke-width="22.7125" stroke-miterlimit="10" stroke-linecap="round"/>
<path d="M434.523 445.305C434.523 445.305 304.052 544.229 410.043 686.056C487.013 789.019 637.422 773.877 637.422 773.877" stroke="#0C4EC0" stroke-width="22.7125" stroke-miterlimit="10" stroke-linecap="round"/>
<path d="M174.341 766.56L175.854 958.859C175.854 973.244 190.744 983.085 204.119 977.281C225.065 968.196 252.825 951.034 270.995 918.984L382.539 1041.38C385.315 1044.41 390.107 1044.66 393.136 1041.88L416.354 1020.69C419.382 1017.91 419.635 1013.12 416.859 1010.09L380.518 968.7L435.534 999.488C439.067 1001.51 443.358 1000.25 445.629 996.965L462.535 971.729C465.059 967.943 463.798 962.896 459.76 960.878L403.989 931.856L452.189 936.147C456.227 936.399 459.761 933.622 460.265 929.584L463.797 901.067L583.668 977.532C586.949 979.804 591.493 978.795 594.017 975.514L606.381 958.354C608.904 954.821 607.896 949.774 604.362 947.503L572.061 926.809L620.515 933.369C624.805 933.874 628.841 930.845 629.093 926.555L630.609 906.871C630.861 902.834 628.085 899.3 624.3 898.795L580.893 891.983L617.486 882.14C621.524 881.131 623.794 877.094 622.784 873.056L618.748 855.137C617.738 851.352 614.204 848.829 610.166 849.333L560.453 857.41L263.675 801.89L174.341 766.56Z" fill="#0C4EC0"/>
<path d="M681.587 645.425L694.457 379.184H694.205C698.748 226.758 582.914 95.7824 429.226 83.4167C270.491 70.5463 131.439 188.904 118.568 347.639C118.064 353.696 117.813 360.004 117.56 366.061H117.055L117.812 379.184C117.812 383.727 118.064 388.268 118.568 392.81L130.935 638.106H131.692C130.177 781.447 239.703 903.589 384.558 915.197C535.974 927.563 668.716 814.507 681.082 663.09C681.334 657.034 681.587 651.229 681.587 645.425Z" fill="url(#paint1_linear_18735_5835)"/>
<path d="M481.717 249.472C481.717 249.472 490.296 253.259 508.466 230.799C526.636 208.591 544.302 190.672 572.567 191.934C600.831 193.196 652.061 263.353 644.49 337.547C636.919 411.741 592.755 486.945 443.358 478.869C293.96 470.794 178.379 387.514 190.745 282.027C203.363 176.541 293.96 132.376 349.984 137.928C406.008 143.48 447.144 177.044 463.295 226.759C463.295 226.507 470.108 248.462 481.717 249.472Z" fill="white"/>
<path d="M478.439 355.97C478.439 355.97 477.932 302.217 497.869 281.775C517.805 261.334 551.874 236.857 603.104 240.39C603.104 240.39 619.003 241.902 619.256 259.063C619.256 259.063 620.012 267.14 614.965 273.702C614.965 273.702 640.202 282.281 638.688 301.713C637.174 321.145 623.04 322.155 612.693 322.912L606.132 370.861C606.132 370.861 600.075 434.454 543.293 431.93C486.512 429.407 480.205 391.806 478.439 355.97Z" fill="#C5D9FB"/>
<path d="M297.997 184.366C297.997 184.366 292.95 165.439 309.354 158.878C325.757 152.317 365.377 161.4 399.698 192.693C433.767 223.733 441.589 255.783 441.589 255.783C441.589 255.783 455.218 355.972 387.08 401.901C387.08 401.901 362.854 412.248 342.917 410.229C322.981 408.21 264.179 390.545 265.693 343.102C266.955 295.658 278.311 248.969 278.311 248.969C278.311 248.969 249.544 239.632 263.423 203.544C263.171 203.292 273.518 181.337 297.997 184.366Z" fill="#C5D9FB"/>
<path d="M406.008 363.79C406.008 363.79 404.24 371.616 413.83 382.215C423.42 392.814 432.505 413.507 434.019 424.106C435.533 434.705 434.02 463.725 444.367 464.735C454.714 465.744 485.247 422.843 489.033 392.055C492.818 361.267 474.649 339.817 454.208 337.798C434.019 335.779 411.307 341.078 406.008 363.79Z" fill="#1F1F1F"/>
<path d="M432.253 379.942C437.549 379.942 441.844 375.649 441.844 370.353C441.844 365.057 437.549 360.764 432.253 360.764C426.957 360.764 422.664 365.057 422.664 370.353C422.664 375.649 426.957 379.942 432.253 379.942Z" fill="#0C4EC0"/>
<path d="M536.732 380.196C553.457 380.196 567.015 366.637 567.015 349.912C567.015 333.187 553.457 319.629 536.732 319.629C520.007 319.629 506.448 333.187 506.448 349.912C506.448 366.637 520.007 380.196 536.732 380.196Z" fill="#02041A"/>
<path d="M525.374 345.627C531.089 345.627 535.72 340.993 535.72 335.278C535.72 329.564 531.089 324.933 525.374 324.933C519.66 324.933 515.028 329.564 515.028 335.278C515.028 340.993 519.66 345.627 525.374 345.627Z" fill="#F9FAFA"/>
<path d="M358.312 331.994C375.037 331.994 388.595 318.436 388.595 301.711C388.595 284.986 375.037 271.428 358.312 271.428C341.587 271.428 328.028 284.986 328.028 301.711C328.028 318.436 341.587 331.994 358.312 331.994Z" fill="#02041A"/>
<path d="M346.956 297.421C352.67 297.421 357.304 292.789 357.304 287.075C357.304 281.36 352.67 276.727 346.956 276.727C341.241 276.727 336.61 281.36 336.61 287.075C336.61 292.789 341.241 297.421 346.956 297.421Z" fill="#F9FAFA"/>
<path fill-rule="evenodd" clip-rule="evenodd" d="M533.273 608.582C539.544 608.482 544.708 613.485 544.808 619.756C545.158 641.842 527.331 660.568 504.937 660.568C483.158 660.568 464.305 643.25 464.305 620.695C464.305 614.424 469.39 609.339 475.661 609.339C481.933 609.339 487.018 614.424 487.018 620.695C487.018 629.938 494.918 637.855 504.937 637.855C514.34 637.855 522.252 629.828 522.098 620.117C521.999 613.845 527.002 608.681 533.273 608.582Z" fill="#0C4EC0"/>
<path d="M439.068 628.268C439.321 644.166 426.451 657.54 410.552 657.54C394.653 657.793 381.279 644.923 381.279 629.024" stroke="#0C4EC0" stroke-width="22.7125" stroke-miterlimit="10" stroke-linecap="round"/>
<path fill-rule="evenodd" clip-rule="evenodd" d="M572.568 605.298C578.84 605.298 583.924 610.382 583.924 616.654C583.924 626.058 591.95 633.97 601.66 633.816C607.931 633.716 613.096 638.719 613.195 644.99C613.295 651.261 608.292 656.426 602.021 656.525C579.934 656.876 561.211 639.047 561.211 616.654C561.211 610.382 566.296 605.298 572.568 605.298Z" fill="#0C4EC0"/>
<path fill-rule="evenodd" clip-rule="evenodd" d="M579.705 679.495C585.977 679.395 591.141 684.398 591.24 690.669C591.591 712.727 573.81 731.428 551.46 731.478C529.411 731.779 510.74 713.969 510.74 691.606C510.74 685.334 515.825 680.25 522.096 680.25C528.368 680.25 533.453 685.334 533.453 691.606C533.453 701.01 541.479 708.922 551.189 708.768L551.279 708.766H551.369C560.774 708.766 568.685 700.74 568.531 691.03C568.431 684.759 573.434 679.594 579.705 679.495Z" fill="#0C4EC0"/>
<path d="M536.481 766.557C536.733 782.455 523.861 795.83 507.962 795.83C492.063 795.83 478.689 783.212 478.689 767.313" stroke="#0C4EC0" stroke-width="22.7125" stroke-miterlimit="10" stroke-linecap="round"/>
<path d="M476.671 698.42C476.923 714.319 464.053 727.693 448.154 727.693C432.256 727.693 418.879 715.075 418.879 699.177" stroke="#0C4EC0" stroke-width="22.7125" stroke-miterlimit="10" stroke-linecap="round"/>
<path d="M214.969 345.625C214.969 345.625 237.935 401.143 315.157 434.203" stroke="#072F73" stroke-width="20.1889" stroke-miterlimit="10"/>
<path d="M315.157 450.604C324.217 450.604 331.561 443.26 331.561 434.2C331.561 425.141 324.217 417.797 315.157 417.797C306.098 417.797 298.754 425.141 298.754 434.2C298.754 443.26 306.098 450.604 315.157 450.604Z" fill="#072F73"/>
<mask id="mask0_18735_5835" style="mask-type:luminance" maskUnits="userSpaceOnUse" x="123" y="-94" width="653" height="382">
<path d="M654.076 223.983C654.076 223.983 673.759 257.295 682.087 287.579L775.965 271.678L625.305 -65.7266L239.952 -93.4863L123.612 52.6292L167.775 163.922C167.775 163.922 178.376 162.408 192.76 163.922C205.126 165.184 216.481 173.511 216.481 173.511L455.972 171.995L654.076 223.983Z" fill="white"/>
</mask>
<g mask="url(#mask0_18735_5835)">
<path d="M670.985 301.71C670.985 297.673 671.742 272.69 671.742 268.652C667.452 142.724 560.704 49.6012 432.504 41.2733C321.465 34.2072 230.361 89.979 192.507 188.905" stroke="#072F73" stroke-width="20.1889" stroke-miterlimit="10"/>
</g>
<path d="M247.082 299.677C261.353 233.887 239.354 173.269 197.946 164.287C156.537 155.305 111.401 201.358 97.1297 267.149C82.8583 332.939 104.856 393.553 146.264 402.535C187.672 411.518 232.81 365.467 247.082 299.677Z" fill="#0C4EC0"/>
<path d="M166.582 231.882C202.618 223.162 228.35 201.705 224.056 183.958C219.762 166.211 187.066 158.894 151.031 167.614C114.995 176.334 89.2642 197.788 93.5585 215.535C97.8528 233.282 130.546 240.602 166.582 231.882Z" fill="#0C4EC0"/>
<path d="M178.347 395.799C189.608 381.426 175.079 351.239 145.895 328.372C116.71 305.505 83.9235 298.618 72.6619 312.991C61.4003 327.364 75.9279 357.553 105.112 380.421C134.297 403.288 167.085 410.172 178.347 395.799Z" fill="#0C4EC0"/>
<path d="M189.757 287.016C201.606 232.395 183.384 182.081 149.059 174.635C114.734 167.189 77.3021 205.431 65.4535 260.052C53.6049 314.672 71.8266 364.986 106.152 372.432C140.477 379.878 177.909 341.637 189.757 287.016Z" fill="#1968F0"/>
<path d="M338.375 862.203H851.171C862.527 862.203 871.109 872.551 869.09 883.908L865.556 901.824C863.789 910.405 856.472 916.461 847.639 916.461H333.579C323.99 916.461 316.923 907.881 318.689 898.544L323.234 874.57C325 867.251 331.309 862.203 338.375 862.203Z" fill="#072F73"/>
<path d="M1057.35 595.712H649.029C633.383 595.712 619.756 606.816 616.728 622.21L564.74 890.723C561.964 904.855 572.817 917.724 586.95 917.724H1003.6C1014.45 917.724 1023.78 909.901 1025.8 899.302L1079.56 622.715C1082.33 608.583 1071.73 595.712 1057.35 595.712Z" fill="url(#paint2_linear_18735_5835)"/>
<path d="M85.7627 713.568C32.7669 644.421 43.1132 545.495 110.494 488.966C178.883 431.68 280.334 440.009 338.629 507.137L571.052 745.869V746.121C571.81 746.878 572.568 747.887 573.325 748.644C591.747 770.6 588.719 803.155 567.016 821.578C550.107 835.71 526.637 837.224 508.467 827.13C508.467 827.13 462.286 877.348 386.578 853.374C349.733 841.765 303.047 811.232 303.047 811.232C303.047 811.232 170.808 821.83 85.7627 713.568Z" fill="#C5D9FB"/>
<path fill-rule="evenodd" clip-rule="evenodd" d="M360.789 709.325C356.354 704.89 349.163 704.89 344.729 709.325C340.294 713.76 340.294 720.95 344.729 725.385C401.789 782.446 449.494 810.975 483.479 825.209C486.385 826.426 489.188 827.538 491.887 828.554C488.473 831.743 484.299 835.207 479.412 838.498C464.181 848.756 442.301 857.208 414.319 850.879C353.617 837.149 293.598 797.598 235.282 740.528C230.799 736.141 223.609 736.219 219.222 740.701C214.836 745.184 214.913 752.374 219.396 756.761C279.184 815.272 342.82 857.993 409.308 873.032C444.921 881.087 473.135 870.108 492.099 857.337C501.53 850.985 508.744 844.159 513.614 838.911C514.553 837.9 515.408 836.943 516.178 836.056C518.81 836.676 521.23 837.176 523.432 837.58C528.161 838.448 531.873 838.868 534.497 839.069C535.808 839.169 536.847 839.215 537.604 839.234C537.983 839.244 538.291 839.247 538.528 839.247L538.64 839.247C538.711 839.246 538.774 839.246 538.829 839.245C538.87 839.245 538.906 839.244 538.939 839.244L538.983 839.243L539.003 839.242C539.012 839.242 539.021 839.242 538.749 827.889L539.021 839.242L539.043 839.241L539.064 839.241C550.607 838.92 562.415 834.767 572.012 826.77L572.036 826.75L572.061 826.729C594.509 807.809 597.414 774.401 578.472 751.927C574.43 747.132 567.266 746.521 562.47 750.563C557.675 754.605 557.064 761.769 561.106 766.565C571.935 779.414 570.307 798.48 557.448 809.342C551.933 813.928 545.116 816.33 538.528 816.534C538.472 816.534 538.357 816.533 538.184 816.529C537.807 816.519 537.153 816.493 536.23 816.422C534.385 816.281 531.463 815.962 527.529 815.24C524.526 814.69 520.929 813.903 516.766 812.78C515.656 812.266 514.491 811.945 513.317 811.809C507.288 810.039 500.243 807.606 492.254 804.26C461.319 791.303 416.028 764.565 360.789 709.325Z" fill="#0C4EC0"/>
</g>
<defs>
<linearGradient id="paint0_linear_18735_5835" x1="375.417" y1="609.942" x2="908.639" y2="609.942" gradientUnits="userSpaceOnUse">
<stop stop-color="#1968F0"/>
<stop offset="0.312" stop-color="#6197F5"/>
<stop offset="0.7237" stop-color="#C5D9FB"/>
</linearGradient>
<linearGradient id="paint1_linear_18735_5835" x1="-152.28" y1="604.061" x2="611.417" y2="460.506" gradientUnits="userSpaceOnUse">
<stop stop-color="#1968F0"/>
<stop offset="0.0788167" stop-color="#2E76F1"/>
<stop offset="0.2974" stop-color="#6499F5"/>
<stop offset="0.5014" stop-color="#8EB5F7"/>
<stop offset="0.6849" stop-color="#ACC9F9"/>
<stop offset="0.8412" stop-color="#BED5FB"/>
<stop offset="0.952" stop-color="#C5D9FB"/>
</linearGradient>
<linearGradient id="paint2_linear_18735_5835" x1="742.737" y1="556.032" x2="945.3" y2="1067.47" gradientUnits="userSpaceOnUse">
<stop stop-color="#0096FA"/>
<stop offset="0.2788" stop-color="#048FF9"/>
<stop offset="0.6789" stop-color="#0E7CF4"/>
<stop offset="1" stop-color="#1968F0"/>
</linearGradient>
<clipPath id="clip0_18735_5835">
<rect width="1080" height="1080" fill="white" transform="translate(0 0.513672)"/>
</clipPath>
</defs>
</svg>
